; generated by PrusaSlicer 2.7.1+win64 on 2024-04-16 at 11:05:15 UTC

; 

; external perimeters extrusion width = 0.42mm
; perimeters extrusion width = 0.44mm
; infill extrusion width = 0.44mm
; solid infill extrusion width = 0.44mm
; top infill extrusion width = 0.40mm
; support material extrusion width = 0.36mm
; first layer extrusion width = 0.42mm

M104 S215 ; set temperature
;TYPE:Custom
START_PRINT
M109 S215 ; set temperature and wait for it to be reached
G21 ; set units to millimeters
G90 ; use absolute coordinates
M83 ; use relative distances for extrusion
; Filament gcode
M107
;LAYER_CHANGE
;Z:0.2
;HEIGHT:0.2
;BEFORE_LAYER_CHANGE
G92 E0
;0.2


G1 E-5 F3600
G1 Z.2 F9000
;AFTER_LAYER_CHANGE
;0.2
G1 X65.682 Y106.699
G1 Z.2
G1 E5 F2400
M204 S500
;TYPE:Skirt/Brim
;WIDTH:0.42
G1 F1200
G1 X114.414 Y81.674 E1.71765
G1 X115.271 Y81.467 E.02764
G1 X123.168 Y81.467 E.2476
G1 X123.623 Y81.523 E.01437
G1 X128.892 Y82.84 E.17029
G1 X129.699 Y83.272 E.0287
G1 X158.675 Y109.614 E1.22784
G1 X160.374 Y111.31 E.07527
G1 X160.725 Y111.798 E.01885
G1 X162.042 Y114.432 E.09234
G1 X162.241 Y115.271 E.02704
G1 X162.241 Y129.753 E.45407
G1 X161.691 Y131.081 E.04507
G1 X156.105 Y136.666 E.24767
G1 X155.617 Y137.018 E.01887
G1 X152.983 Y138.335 E.09234
G1 X152.144 Y138.533 E.02703
G1 X67.856 Y138.533 E2.64279
G1 X67.017 Y138.335 E.02703
G1 X64.383 Y137.018 E.09234
G1 X63.895 Y136.666 E.01887
G1 X58.309 Y131.081 E.24767
G1 X57.76 Y129.753 E.04506
G1 X57.76 Y115.271 E.45407
G1 X57.958 Y114.432 E.02703
G1 X59.275 Y111.798 E.09234
G1 X59.626 Y111.31 E.01885
G1 X61.547 Y109.441 E.08404
G1 X65.632 Y106.732 E.15369
G1 E-3.5 F3600
;WIPE_START
G1 F7200
G1 X65.682 Y106.699 E-.02846
G1 X68.438 Y105.284 E-1.47154
;WIPE_END
G1 X124.485 Y84.661 F9000
G1 E5 F2400
;TYPE:Support material
G1 F1200
G1 X128.436 Y84.661 E.12388
G1 X132.705 Y88.93 E.18929
G1 X132.705 Y90.247 E.04129
G1 X134.022 Y91.564 E.0584
G1 X134.022 Y96.826 E.16499
G1 X132.705 Y98.143 E.0584
G1 X132.705 Y102.095 E.12391
G1 X131.388 Y103.412 E.0584
G1 X131.388 Y106.046 E.08259
G1 X130.071 Y107.363 E.0584
G1 X130.071 Y108.369 E.03154
G1 X153.461 Y108.369 E.73338
G1 X156.095 Y111.003 E.1168
G1 X157.412 Y111.003 E.04129
G1 X159.046 Y112.637 E.07245
G1 X159.046 Y113.954 E.04129
G1 X160.363 Y115.271 E.0584
G1 X160.363 Y129.753 E.45407
G1 X154.778 Y135.339 E.24767
G1 X153.461 Y135.339 E.04129
G1 X152.144 Y136.656 E.0584
G1 X67.856 Y136.656 E2.64279
G1 X66.539 Y135.339 E.0584
G1 X65.222 Y135.339 E.04129
G1 X59.637 Y129.753 E.24767
G1 X59.637 Y115.271 E.45407
G1 X60.954 Y113.954 E.0584
G1 X60.954 Y112.637 E.04129
G1 X62.588 Y111.003 E.07245
G1 X63.905 Y111.003 E.04129
G1 X66.539 Y108.369 E.1168
G1 X104.735 Y108.369 E1.19761
G1 X105.734 Y107.369 E.04432
G1 X105.734 Y103.417 E.12391
G1 X107.051 Y102.1 E.0584
G1 X107.051 Y99.466 E.08259
G1 X108.369 Y98.149 E.05842
G1 X108.369 Y94.198 E.12388
G1 X109.686 Y92.881 E.0584
G1 X109.686 Y88.93 E.12388
G1 X115.271 Y83.344 E.24767
G1 X123.168 Y83.344 E.2476
G1 X124.445 Y84.621 E.05662
G1 E-3.5 F3600
;WIPE_START
G1 F7200
G1 X123.168 Y83.344 E-.85783
G1 X121.816 Y83.344 E-.64217
;WIPE_END
G1 X159.858 Y115.246 F9000
G1 E5 F2400
G1 F1200
G1 X159.858 Y129.779 E.45567
G1 X159.439 Y130.198 E.01858
G1 X159.439 Y114.827 E.48195
G1 X159.02 Y114.408 E.01858
G1 X159.02 Y130.617 E.50822
G1 X158.601 Y131.035 E.01856
G1 X158.601 Y112.672 E.57576
G1 X158.182 Y112.253 E.01858
G1 X158.182 Y131.454 E.60203
G1 X157.763 Y131.873 E.01858
G1 X157.763 Y111.834 E.62831
G1 X157.344 Y111.415 E.01858
G1 X157.344 Y132.292 E.65458
G1 X156.925 Y132.711 E.01858
G1 X156.925 Y111.342 E.67001
G1 X156.506 Y111.342 E.01314
G1 X156.506 Y133.13 E.68315
G1 X156.087 Y133.549 E.01858
G1 X156.087 Y111.342 E.69628
G1 X155.954 Y111.342 E.00417
G1 X155.668 Y111.056 E.01268
G1 X155.668 Y133.968 E.71839
G1 X155.25 Y134.387 E.01856
G1 X155.25 Y110.637 E.74466
G1 X154.831 Y110.218 E.01858
G1 X154.831 Y134.806 E.77094
G1 X154.637 Y135 E.0086
G1 X154.412 Y135 E.00705
G1 X154.412 Y109.799 E.79016
G1 X153.993 Y109.38 E.01858
G1 X153.993 Y135 E.8033
G1 X153.574 Y135 E.01314
G1 X153.574 Y108.961 E.81643
G1 X153.32 Y108.708 E.01124
G1 X153.155 Y108.708 E.00517
G1 X153.155 Y135.165 E.82954
G1 X152.736 Y135.584 E.01858
G1 X152.736 Y108.708 E.84268
G1 X152.317 Y108.708 E.01314
G1 X152.317 Y136.003 E.85582
G1 X152.003 Y136.317 E.01392
G1 X151.898 Y136.317 E.00329
G1 X151.898 Y108.708 E.86566
G1 X151.479 Y108.708 E.01314
G1 X151.479 Y136.317 E.86566
G1 X151.06 Y136.317 E.01314
G1 X151.06 Y108.708 E.86566
G1 X150.641 Y108.708 E.01314
G1 X150.641 Y136.317 E.86566
G1 X150.222 Y136.317 E.01314
G1 X150.222 Y108.708 E.86566
G1 X149.803 Y108.708 E.01314
G1 X149.803 Y136.317 E.86566
G1 X149.384 Y136.317 E.01314
G1 X149.384 Y108.708 E.86566
G1 X148.965 Y108.708 E.01314
G1 X148.965 Y136.317 E.86566
G1 X148.546 Y136.317 E.01314
G1 X148.546 Y108.708 E.86566
G1 X148.127 Y108.708 E.01314
G1 X148.127 Y136.317 E.86566
G1 X147.708 Y136.317 E.01314
G1 X147.708 Y108.708 E.86566
G1 X147.289 Y108.708 E.01314
G1 X147.289 Y136.317 E.86566
G1 X146.87 Y136.317 E.01314
G1 X146.87 Y108.708 E.86566
G1 X146.451 Y108.708 E.01314
G1 X146.451 Y136.317 E.86566
G1 X146.032 Y136.317 E.01314
G1 X146.032 Y108.708 E.86566
G1 X145.613 Y108.708 E.01314
G1 X145.613 Y136.317 E.86566
G1 X145.194 Y136.317 E.01314
G1 X145.194 Y108.708 E.86566
G1 X144.775 Y108.708 E.01314
G1 X144.775 Y136.317 E.86566
G1 X144.356 Y136.317 E.01314
G1 X144.356 Y108.708 E.86566
G1 X143.937 Y108.708 E.01314
G1 X143.937 Y136.317 E.86566
G1 X143.518 Y136.317 E.01314
G1 X143.518 Y108.708 E.86566
G1 X143.099 Y108.708 E.01314
G1 X143.099 Y136.317 E.86566
G1 X142.68 Y136.317 E.01314
G1 X142.68 Y108.708 E.86566
G1 X142.261 Y108.708 E.01314
G1 X142.261 Y136.317 E.86566
G1 X141.842 Y136.317 E.01314
G1 X141.842 Y108.708 E.86566
G1 X141.423 Y108.708 E.01314
G1 X141.423 Y136.317 E.86566
G1 X141.004 Y136.317 E.01314
G1 X141.004 Y108.708 E.86566
G1 X140.585 Y108.708 E.01314
G1 X140.585 Y136.317 E.86566
G1 X140.166 Y136.317 E.01314
G1 X140.166 Y108.708 E.86566
G1 X139.747 Y108.708 E.01314
G1 X139.747 Y136.317 E.86566
G1 X139.328 Y136.317 E.01314
G1 X139.328 Y108.708 E.86566
G1 X138.909 Y108.708 E.01314
G1 X138.909 Y136.317 E.86566
G1 X138.49 Y136.317 E.01314
G1 X138.49 Y108.708 E.86566
G1 X138.071 Y108.708 E.01314
G1 X138.071 Y136.317 E.86566
G1 X137.652 Y136.317 E.01314
G1 X137.652 Y108.708 E.86566
G1 X137.234 Y108.708 E.01311
G1 X137.234 Y136.317 E.86566
G1 X136.815 Y136.317 E.01314
G1 X136.815 Y108.708 E.86566
G1 X136.396 Y108.708 E.01314
G1 X136.396 Y136.317 E.86566
G1 X135.977 Y136.317 E.01314
G1 X135.977 Y108.708 E.86566
G1 X135.558 Y108.708 E.01314
G1 X135.558 Y136.317 E.86566
G1 X135.139 Y136.317 E.01314
G1 X135.139 Y108.708 E.86566
G1 X134.72 Y108.708 E.01314
G1 X134.72 Y136.317 E.86566
G1 X134.301 Y136.317 E.01314
G1 X134.301 Y108.708 E.86566
G1 X133.882 Y108.708 E.01314
G1 X133.882 Y136.317 E.86566
G1 X133.463 Y136.317 E.01314
G1 X133.463 Y108.708 E.86566
G1 X133.044 Y108.708 E.01314
G1 X133.044 Y136.317 E.86566
G1 X132.625 Y136.317 E.01314
G1 X132.625 Y108.708 E.86566
G1 X132.206 Y108.708 E.01314
G1 X132.206 Y136.317 E.86566
G1 X131.787 Y136.317 E.01314
G1 X131.787 Y108.708 E.86566
G1 X131.368 Y108.708 E.01314
G1 X131.368 Y136.317 E.86566
G1 X130.949 Y136.317 E.01314
G1 X130.949 Y108.708 E.86566
G1 X130.53 Y108.708 E.01314
G1 X130.53 Y136.317 E.86566
G1 X130.111 Y136.317 E.01314
G1 X130.111 Y108.708 E.86566
G1 E-3.5 F3600
;WIPE_START
G1 F7200
G1 X130.111 Y111.866 E-1.5
;WIPE_END
G1 X132.625 Y97.743 F9000
G1 E5 F2400
G1 F1200
G1 X132.625 Y90.647 E.22249
G1 X133.044 Y91.066 E.01858
G1 X133.044 Y97.325 E.19625
G1 X133.463 Y96.906 E.01858
G1 X133.463 Y91.485 E.16997
G1 X133.682 Y91.704 E.00971
G1 X133.682 Y91.919 E.00674
G1 E-3.5 F3600
;WIPE_START
G1 F7200
G1 X133.682 Y91.704 E-.10212
G1 X133.463 Y91.485 E-.14711
G1 X133.463 Y94.118 E-1.25077
;WIPE_END
G1 X131.368 Y102.952 F9000
G1 E5 F2400
G1 F1200
G1 X131.368 Y88.073 E.46652
G1 X131.787 Y88.492 E.01858
G1 X131.787 Y102.533 E.44025
G1 X132.206 Y102.114 E.01858
G1 X132.206 Y88.911 E.41397
G1 E-3.5 F3600
;WIPE_START
G1 F7200
G1 X132.206 Y92.069 E-1.5
;WIPE_END
G1 X130.111 Y106.843 F9000
G1 E5 F2400
G1 F1200
G1 X130.111 Y86.816 E.62793
G1 X130.53 Y87.235 E.01858
G1 X130.53 Y106.424 E.60166
G1 X130.949 Y106.005 E.01858
G1 X130.949 Y87.654 E.57538
G1 X131.235 Y87.939 E.01266
G1 X129.978 Y86.682 F9000
G1 F1200
G1 X129.692 Y86.397 E.01266
G1 X129.692 Y136.317 E1.56521
G1 X129.273 Y136.317 E.01314
G1 X129.273 Y85.978 E1.57834
G1 X128.854 Y85.559 E.01858
G1 X128.854 Y136.317 E1.59148
G1 X128.435 Y136.317 E.01314
G1 X128.435 Y85.14 E1.60462
G1 X128.296 Y85 E.00619
G1 X128.016 Y85 E.00878
G1 X128.016 Y136.317 E1.60901
G1 X127.597 Y136.317 E.01314
G1 X127.597 Y85 E1.60901
G1 X127.178 Y85 E.01314
G1 X127.178 Y136.317 E1.60901
G1 X126.759 Y136.317 E.01314
G1 X126.759 Y85 E1.60901
G1 X126.34 Y85 E.01314
G1 X126.34 Y136.317 E1.60901
G1 X125.921 Y136.317 E.01314
G1 X125.921 Y85 E1.60901
G1 X125.502 Y85 E.01314
G1 X125.502 Y136.317 E1.60901
G1 X125.083 Y136.317 E.01314
G1 X125.083 Y85 E1.60901
G1 X124.664 Y85 E.01314
G1 X124.664 Y136.317 E1.60901
G1 X124.245 Y136.317 E.01314
G1 X124.245 Y84.901 E1.61211
G1 X123.826 Y84.482 E.01858
G1 X123.826 Y136.317 E1.62525
G1 X123.407 Y136.317 E.01314
G1 X123.407 Y84.063 E1.63839
G1 X122.988 Y83.683 E.01774
G1 X122.988 Y136.317 E1.6503
G1 X122.569 Y136.317 E.01314
G1 X122.569 Y83.683 E1.6503
G1 X122.15 Y83.683 E.01314
G1 X122.15 Y136.317 E1.6503
G1 X121.731 Y136.317 E.01314
G1 X121.731 Y83.683 E1.6503
G1 X121.312 Y83.683 E.01314
G1 X121.312 Y136.317 E1.6503
G1 X120.893 Y136.317 E.01314
G1 X120.893 Y83.683 E1.6503
G1 X120.474 Y83.683 E.01314
G1 X120.474 Y136.317 E1.6503
G1 X120.055 Y136.317 E.01314
G1 X120.055 Y83.683 E1.6503
G1 X119.636 Y83.683 E.01314
G1 X119.636 Y136.317 E1.6503
G1 X119.217 Y136.317 E.01314
G1 X119.217 Y83.683 E1.6503
G1 X118.799 Y83.683 E.01311
G1 X118.799 Y136.317 E1.6503
G1 X118.38 Y136.317 E.01314
G1 X118.38 Y83.683 E1.6503
G1 X117.961 Y83.683 E.01314
G1 X117.961 Y136.317 E1.6503
G1 X117.542 Y136.317 E.01314
G1 X117.542 Y83.683 E1.6503
G1 X117.123 Y83.683 E.01314
G1 X117.123 Y136.317 E1.6503
G1 X116.704 Y136.317 E.01314
G1 X116.704 Y83.683 E1.6503
G1 X116.285 Y83.683 E.01314
G1 X116.285 Y136.317 E1.6503
G1 X115.866 Y136.317 E.01314
G1 X115.866 Y83.683 E1.6503
G1 X115.447 Y83.683 E.01314
G1 X115.447 Y136.317 E1.6503
G1 X115.028 Y136.317 E.01314
G1 X115.028 Y84.067 E1.63826
G1 X114.609 Y84.486 E.01858
G1 X114.609 Y136.317 E1.62512
G1 X114.19 Y136.317 E.01314
G1 X114.19 Y84.905 E1.61199
G1 X113.771 Y85.324 E.01858
G1 X113.771 Y136.317 E1.59885
G1 X113.352 Y136.317 E.01314
G1 X113.352 Y85.743 E1.58571
G1 X112.933 Y86.162 E.01858
G1 X112.933 Y136.317 E1.57257
G1 X112.514 Y136.317 E.01314
G1 X112.514 Y86.581 E1.55944
G1 X112.095 Y87 E.01858
G1 X112.095 Y136.317 E1.5463
G1 X111.676 Y136.317 E.01314
G1 X111.676 Y87.419 E1.53316
G1 X111.257 Y87.838 E.01858
G1 X111.257 Y136.317 E1.52003
G1 X110.838 Y136.317 E.01314
G1 X110.838 Y88.257 E1.50689
G1 X110.419 Y88.676 E.01858
G1 X110.419 Y136.317 E1.49375
G1 X110 Y136.317 E.01314
G1 X110.025 Y89.07 E1.4814
G1 E-3.5 F3600
;WIPE_START
G1 F7200
G1 X110.023 Y92.228 E-1.5
;WIPE_END
G1 X109.867 Y93.18 F9000
G1 E5 F2400
G1 F1200
G1 X109.581 Y93.465 E.01266
G1 X109.581 Y136.317 E1.34359
G1 X109.162 Y136.317 E.01314
G1 X109.162 Y93.884 E1.33046
G1 X108.743 Y94.303 E.01858
G1 X108.743 Y136.317 E1.31732
G1 X108.324 Y136.317 E.01314
G1 X108.324 Y98.674 E1.18027
G1 X107.905 Y99.093 E.01858
G1 X107.905 Y136.317 E1.16713
G1 X107.486 Y136.317 E.01314
G1 X107.486 Y99.512 E1.15399
G1 E-3.5 F3600
;WIPE_START
G1 F7200
G1 X107.486 Y102.67 E-1.5
;WIPE_END
G1 X107.067 Y102.565 F9000
G1 E5 F2400
G1 F1200
G1 X107.067 Y136.317 E1.05827
G1 X106.648 Y136.317 E.01314
G1 X106.648 Y102.984 E1.04513
G1 X106.229 Y103.403 E.01858
G1 X106.229 Y136.317 E1.032
G1 X105.81 Y136.317 E.01314
G1 X105.81 Y107.773 E.89498
G1 X105.391 Y108.192 E.01858
G1 X105.391 Y136.317 E.88184
G1 X104.972 Y136.317 E.01314
G1 X104.972 Y108.611 E.8687
G1 X104.875 Y108.708 E.0043
G1 X104.553 Y108.708 E.0101
G1 X104.553 Y136.317 E.86566
G1 X104.134 Y136.317 E.01314
G1 X104.134 Y108.708 E.86566
G1 X103.715 Y108.708 E.01314
G1 X103.715 Y136.317 E.86566
G1 X103.296 Y136.317 E.01314
G1 X103.296 Y108.708 E.86566
G1 X102.877 Y108.708 E.01314
G1 X102.877 Y136.317 E.86566
G1 X102.458 Y136.317 E.01314
G1 X102.458 Y108.708 E.86566
G1 X102.039 Y108.708 E.01314
G1 X102.039 Y136.317 E.86566
G1 X101.62 Y136.317 E.01314
G1 X101.62 Y108.708 E.86566
G1 X101.201 Y108.708 E.01314
G1 X101.201 Y136.317 E.86566
G1 X100.783 Y136.317 E.01311
G1 X100.783 Y108.708 E.86566
G1 X100.364 Y108.708 E.01314
G1 X100.364 Y136.317 E.86566
G1 X99.945 Y136.317 E.01314
G1 X99.945 Y108.708 E.86566
G1 X99.526 Y108.708 E.01314
G1 X99.526 Y136.317 E.86566
G1 X99.107 Y136.317 E.01314
G1 X99.107 Y108.708 E.86566
G1 X98.688 Y108.708 E.01314
G1 X98.688 Y136.317 E.86566
G1 X98.269 Y136.317 E.01314
G1 X98.269 Y108.708 E.86566
G1 X97.85 Y108.708 E.01314
G1 X97.85 Y136.317 E.86566
G1 X97.431 Y136.317 E.01314
G1 X97.431 Y108.708 E.86566
G1 X97.012 Y108.708 E.01314
G1 X97.012 Y136.317 E.86566
G1 X96.593 Y136.317 E.01314
G1 X96.593 Y108.708 E.86566
G1 X96.174 Y108.708 E.01314
G1 X96.174 Y136.317 E.86566
G1 X95.755 Y136.317 E.01314
G1 X95.755 Y108.708 E.86566
G1 X95.336 Y108.708 E.01314
G1 X95.336 Y136.317 E.86566
G1 X94.917 Y136.317 E.01314
G1 X94.917 Y108.708 E.86566
G1 X94.498 Y108.708 E.01314
G1 X94.498 Y136.317 E.86566
G1 X94.079 Y136.317 E.01314
G1 X94.079 Y108.708 E.86566
G1 X93.66 Y108.708 E.01314
G1 X93.66 Y136.317 E.86566
G1 X93.241 Y136.317 E.01314
G1 X93.241 Y108.708 E.86566
G1 X92.822 Y108.708 E.01314
G1 X92.822 Y136.317 E.86566
G1 X92.403 Y136.317 E.01314
G1 X92.403 Y108.708 E.86566
G1 X91.984 Y108.708 E.01314
G1 X91.984 Y136.317 E.86566
G1 X91.565 Y136.317 E.01314
G1 X91.565 Y108.708 E.86566
G1 X91.146 Y108.708 E.01314
G1 X91.146 Y136.317 E.86566
G1 X90.727 Y136.317 E.01314
G1 X90.727 Y108.708 E.86566
G1 X90.308 Y108.708 E.01314
G1 X90.308 Y136.317 E.86566
G1 X89.889 Y136.317 E.01314
G1 X89.889 Y108.708 E.86566
G1 X89.47 Y108.708 E.01314
G1 X89.47 Y136.317 E.86566
G1 X89.051 Y136.317 E.01314
G1 X89.051 Y108.708 E.86566
G1 X88.632 Y108.708 E.01314
G1 X88.632 Y136.317 E.86566
G1 X88.213 Y136.317 E.01314
G1 X88.213 Y108.708 E.86566
G1 X87.794 Y108.708 E.01314
G1 X87.794 Y136.317 E.86566
G1 X87.375 Y136.317 E.01314
G1 X87.375 Y108.708 E.86566
G1 X86.956 Y108.708 E.01314
G1 X86.956 Y136.317 E.86566
G1 X86.537 Y136.317 E.01314
G1 X86.537 Y108.708 E.86566
G1 X86.118 Y108.708 E.01314
G1 X86.118 Y136.317 E.86566
G1 X85.699 Y136.317 E.01314
G1 X85.699 Y108.708 E.86566
G1 X85.28 Y108.708 E.01314
G1 X85.28 Y136.317 E.86566
G1 X84.861 Y136.317 E.01314
G1 X84.861 Y108.708 E.86566
G1 X84.442 Y108.708 E.01314
G1 X84.442 Y136.317 E.86566
G1 X84.023 Y136.317 E.01314
G1 X84.023 Y108.708 E.86566
G1 X83.604 Y108.708 E.01314
G1 X83.604 Y136.317 E.86566
G1 X83.185 Y136.317 E.01314
G1 X83.185 Y108.708 E.86566
G1 X82.766 Y108.708 E.01314
G1 X82.766 Y136.317 E.86566
G1 X82.348 Y136.317 E.01311
G1 X82.348 Y108.708 E.86566
G1 X81.929 Y108.708 E.01314
G1 X81.929 Y136.317 E.86566
G1 X81.51 Y136.317 E.01314
G1 X81.51 Y108.708 E.86566
G1 X81.091 Y108.708 E.01314
G1 X81.091 Y136.317 E.86566
G1 X80.672 Y136.317 E.01314
G1 X80.672 Y108.708 E.86566
G1 X80.253 Y108.708 E.01314
G1 X80.253 Y136.317 E.86566
G1 X79.834 Y136.317 E.01314
G1 X79.834 Y108.708 E.86566
G1 X79.415 Y108.708 E.01314
G1 X79.415 Y136.317 E.86566
G1 X78.996 Y136.317 E.01314
G1 X78.996 Y108.708 E.86566
G1 X78.577 Y108.708 E.01314
G1 X78.577 Y136.317 E.86566
G1 X78.158 Y136.317 E.01314
G1 X78.158 Y108.708 E.86566
G1 X77.739 Y108.708 E.01314
G1 X77.739 Y136.317 E.86566
G1 X77.32 Y136.317 E.01314
G1 X77.32 Y108.708 E.86566
G1 X76.901 Y108.708 E.01314
G1 X76.901 Y136.317 E.86566
G1 X76.482 Y136.317 E.01314
G1 X76.482 Y108.708 E.86566
G1 X76.063 Y108.708 E.01314
G1 X76.063 Y136.317 E.86566
G1 X75.644 Y136.317 E.01314
G1 X75.644 Y108.708 E.86566
G1 X75.225 Y108.708 E.01314
G1 X75.225 Y136.317 E.86566
